docs/local/img/sprites/word.color.svg

<svg width="115" height="210" viewBox="0 0 115 210" xmlns="http://www.w3.org/2000/svg">
<path d="M64.18 115.476C64.18 116.436 64.024 117.33 63.712 118.158C63.388 118.974 62.938 119.688 62.362 120.3C61.774 120.9 61.084 121.368 60.292 121.704C59.5 122.04 58.636 122.208 57.7 122.208C56.764 122.208 55.9 122.04 55.108 121.704C54.316 121.368 53.632 120.894 53.056 120.282C52.468 119.67 52.018 118.956 51.706 118.14C51.382 117.324 51.22 116.43 51.22 115.458C51.22 114.426 51.4 113.484 51.76 112.632C52.108 111.78 52.63 111.06 53.326 110.472L54.748 111.984C54.256 112.44 53.89 112.95 53.65 113.514C53.398 114.078 53.272 114.69 53.272 115.35C53.272 116.01 53.38 116.616 53.596 117.168C53.812 117.708 54.118 118.182 54.514 118.59C54.91 118.986 55.378 119.298 55.918 119.526C56.458 119.742 57.052 119.85 57.7 119.85C58.348 119.85 58.942 119.742 59.482 119.526C60.022 119.298 60.49 118.986 60.886 118.59C61.282 118.182 61.588 117.708 61.804 117.168C62.02 116.616 62.128 116.01 62.128 115.35C62.128 114.69 62.008 114.078 61.768 113.514C61.516 112.95 61.138 112.44 60.634 111.984L62.074 110.472C62.758 111.06 63.28 111.78 63.64 112.632C64 113.484 64.18 114.432 64.18 115.476ZM64.18 99.8895C64.18 100.874 64.018 101.78 63.694 102.608C63.37 103.436 62.92 104.156 62.344 104.768C61.756 105.38 61.072 105.854 60.292 106.19C59.5 106.526 58.636 106.694 57.7 106.694C56.764 106.694 55.906 106.526 55.126 106.19C54.334 105.854 53.65 105.38 53.074 104.768C52.486 104.156 52.03 103.436 51.706 102.608C51.382 101.78 51.22 100.88 51.22 99.9075C51.22 98.9235 51.382 98.0235 51.706 97.2075C52.03 96.3795 52.486 95.6595 53.074 95.0475C53.65 94.4355 54.334 93.9615 55.126 93.6255C55.906 93.2895 56.764 93.1215 57.7 93.1215C58.636 93.1215 59.5 93.2895 60.292 93.6255C61.084 93.9615 61.768 94.4355 62.344 95.0475C62.92 95.6595 63.37 96.3795 63.694 97.2075C64.018 98.0235 64.18 98.9175 64.18 99.8895ZM62.128 99.9075C62.128 99.2715 62.02 98.6835 61.804 98.1435C61.588 97.6035 61.282 97.1355 60.886 96.7395C60.478 96.3435 60.01 96.0375 59.482 95.8215C58.942 95.5935 58.348 95.4795 57.7 95.4795C57.052 95.4795 56.464 95.5935 55.936 95.8215C55.396 96.0375 54.928 96.3435 54.532 96.7395C54.124 97.1355 53.812 97.6035 53.596 98.1435C53.38 98.6835 53.272 99.2715 53.272 99.9075C53.272 100.544 53.38 101.132 53.596 101.672C53.812 102.2 54.124 102.668 54.532 103.076C54.928 103.472 55.396 103.784 55.936 104.012C56.464 104.228 57.052 104.336 57.7 104.336C58.336 104.336 58.924 104.228 59.464 104.012C60.004 103.784 60.478 103.472 60.886 103.076C61.282 102.68 61.588 102.212 61.804 101.672C62.02 101.132 62.128 100.544 62.128 99.9075ZM64 87.9412L51.4 87.9412L51.4 85.6012L62.02 85.6012L62.02 79.0132L64 79.0132L64 87.9412ZM64.18 68.7903C64.18 69.7743 64.018 70.6803 63.694 71.5083C63.37 72.3363 62.92 73.0563 62.344 73.6683C61.756 74.2803 61.072 74.7543 60.292 75.0903C59.5 75.4263 58.636 75.5943 57.7 75.5943C56.764 75.5943 55.906 75.4263 55.126 75.0903C54.334 74.7543 53.65 74.2803 53.074 73.6683C52.486 73.0563 52.03 72.3363 51.706 71.5083C51.382 70.6803 51.22 69.7803 51.22 68.8083C51.22 67.8243 51.382 66.9243 51.706 66.1083C52.03 65.2803 52.486 64.5603 53.074 63.9483C53.65 63.3363 54.334 62.8623 55.126 62.5263C55.906 62.1903 56.764 62.0223 57.7 62.0223C58.636 62.0223 59.5 62.1903 60.292 62.5263C61.084 62.8623 61.768 63.3363 62.344 63.9483C62.92 64.5603 63.37 65.2803 63.694 66.1083C64.018 66.9243 64.18 67.8183 64.18 68.7903ZM62.128 68.8083C62.128 68.1723 62.02 67.5843 61.804 67.0443C61.588 66.5043 61.282 66.0363 60.886 65.6403C60.478 65.2443 60.01 64.9383 59.482 64.7223C58.942 64.4943 58.348 64.3803 57.7 64.3803C57.052 64.3803 56.464 64.4943 55.936 64.7223C55.396 64.9383 54.928 65.2443 54.532 65.6403C54.124 66.0363 53.812 66.5043 53.596 67.0443C53.38 67.5843 53.272 68.1723 53.272 68.8083C53.272 69.4443 53.38 70.0323 53.596 70.5723C53.812 71.1003 54.124 71.5683 54.532 71.9763C54.928 72.3723 55.396 72.6843 55.936 72.9123C56.464 73.1283 57.052 73.2363 57.7 73.2363C58.336 73.2363 58.924 73.1283 59.464 72.9123C60.004 72.6843 60.478 72.3723 60.886 71.9763C61.282 71.5803 61.588 71.1123 61.804 70.5723C62.02 70.0323 62.128 69.4443 62.128 68.8083ZM64 56.842L51.4 56.842L51.4 51.658C51.4 50.542 51.58 49.588 51.94 48.796C52.3 47.992 52.816 47.374 53.488 46.942C54.16 46.51 54.958 46.294 55.882 46.294C56.806 46.294 57.604 46.51 58.276 46.942C58.936 47.374 59.446 47.992 59.806 48.796C60.154 49.588 60.328 50.542 60.328 51.658L60.328 55.546L59.266 54.502L64 54.502L64 56.842ZM64 48.598L59.428 51.784L59.428 49.282L64 46.078L64 48.598ZM59.518 54.502L58.402 55.546L58.402 51.766C58.402 50.734 58.18 49.96 57.736 49.444C57.292 48.916 56.674 48.652 55.882 48.652C55.078 48.652 54.46 48.916 54.028 49.444C53.596 49.96 53.38 50.734 53.38 51.766L53.38 55.546L52.228 54.502L59.518 54.502Z"/>
<path opacity="0.5" d="M64.18 146.476C64.18 147.436 64.024 148.33 63.712 149.158C63.388 149.974 62.938 150.688 62.362 151.3C61.774 151.9 61.084 152.368 60.292 152.704C59.5 153.04 58.636 153.208 57.7 153.208C56.764 153.208 55.9 153.04 55.108 152.704C54.316 152.368 53.632 151.894 53.056 151.282C52.468 150.67 52.018 149.956 51.706 149.14C51.382 148.324 51.22 147.43 51.22 146.458C51.22 145.426 51.4 144.484 51.76 143.632C52.108 142.78 52.63 142.06 53.326 141.472L54.748 142.984C54.256 143.44 53.89 143.95 53.65 144.514C53.398 145.078 53.272 145.69 53.272 146.35C53.272 147.01 53.38 147.616 53.596 148.168C53.812 148.708 54.118 149.182 54.514 149.59C54.91 149.986 55.378 150.298 55.918 150.526C56.458 150.742 57.052 150.85 57.7 150.85C58.348 150.85 58.942 150.742 59.482 150.526C60.022 150.298 60.49 149.986 60.886 149.59C61.282 149.182 61.588 148.708 61.804 148.168C62.02 147.616 62.128 147.01 62.128 146.35C62.128 145.69 62.008 145.078 61.768 144.514C61.516 143.95 61.138 143.44 60.634 142.984L62.074 141.472C62.758 142.06 63.28 142.78 63.64 143.632C64 144.484 64.18 145.432 64.18 146.476Z"/>
<path opacity="0.2" d="M64.18 174.476C64.18 175.436 64.024 176.33 63.712 177.158C63.388 177.974 62.938 178.688 62.362 179.3C61.774 179.9 61.084 180.368 60.292 180.704C59.5 181.04 58.636 181.208 57.7 181.208C56.764 181.208 55.9 181.04 55.108 180.704C54.316 180.368 53.632 179.894 53.056 179.282C52.468 178.67 52.018 177.956 51.706 177.14C51.382 176.324 51.22 175.43 51.22 174.458C51.22 173.426 51.4 172.484 51.76 171.632C52.108 170.78 52.63 170.06 53.326 169.472L54.748 170.984C54.256 171.44 53.89 171.95 53.65 172.514C53.398 173.078 53.272 173.69 53.272 174.35C53.272 175.01 53.38 175.616 53.596 176.168C53.812 176.708 54.118 177.182 54.514 177.59C54.91 177.986 55.378 178.298 55.918 178.526C56.458 178.742 57.052 178.85 57.7 178.85C58.348 178.85 58.942 178.742 59.482 178.526C60.022 178.298 60.49 177.986 60.886 177.59C61.282 177.182 61.588 176.708 61.804 176.168C62.02 175.616 62.128 175.01 62.128 174.35C62.128 173.69 62.008 173.078 61.768 172.514C61.516 171.95 61.138 171.44 60.634 170.984L62.074 169.472C62.758 170.06 63.28 170.78 63.64 171.632C64 172.484 64.18 173.432 64.18 174.476Z"/>
<path opacity="0.1" d="M64.18 202.476C64.18 203.436 64.024 204.33 63.712 205.158C63.388 205.974 62.938 206.688 62.362 207.3C61.774 207.9 61.084 208.368 60.292 208.704C59.5 209.04 58.636 209.208 57.7 209.208C56.764 209.208 55.9 209.04 55.108 208.704C54.316 208.368 53.632 207.894 53.056 207.282C52.468 206.67 52.018 205.956 51.706 205.14C51.382 204.324 51.22 203.43 51.22 202.458C51.22 201.426 51.4 200.484 51.76 199.632C52.108 198.78 52.63 198.06 53.326 197.472L54.748 198.984C54.256 199.44 53.89 199.95 53.65 200.514C53.398 201.078 53.272 201.69 53.272 202.35C53.272 203.01 53.38 203.616 53.596 204.168C53.812 204.708 54.118 205.182 54.514 205.59C54.91 205.986 55.378 206.298 55.918 206.526C56.458 206.742 57.052 206.85 57.7 206.85C58.348 206.85 58.942 206.742 59.482 206.526C60.022 206.298 60.49 205.986 60.886 205.59C61.282 205.182 61.588 204.708 61.804 204.168C62.02 203.616 62.128 203.01 62.128 202.35C62.128 201.69 62.008 201.078 61.768 200.514C61.516 199.95 61.138 199.44 60.634 198.984L62.074 197.472C62.758 198.06 63.28 198.78 63.64 199.632C64 200.484 64.18 201.432 64.18 202.476Z"/>
<rect x="52" y="5.8651e-05" width="12" height="12" rx="6" fill="#D2286F"/>
</svg>

<svg width="115" height="210" viewBox="0 0 115 210" xmlns="http://www.w3.org/2000/svg"><path d="M64.18 115.476c0 .96-.156 1.854-.468 2.682a6.697 6.697 0 01-1.35 2.142 6.325 6.325 0 01-2.07 1.404 6.569 6.569 0 01-2.592.504c-.936 0-1.8-.168-2.592-.504a6.003 6.003 0 01-2.052-1.422 6.307 6.307 0 01-1.35-2.142c-.324-.816-.486-1.71-.486-2.682 0-1.032.18-1.974.54-2.826a5.515 5.515 0 011.566-2.16l1.422 1.512a4.464 4.464 0 00-1.098 1.53 4.449 4.449 0 00-.378 1.836c0 .66.108 1.266.324 1.818.216.54.522 1.014.918 1.422.396.396.864.708 1.404.936.54.216 1.134.324 1.782.324.648 0 1.242-.108 1.782-.324a4.361 4.361 0 001.404-.936c.396-.408.702-.882.918-1.422a4.948 4.948 0 00.324-1.818c0-.66-.12-1.272-.36-1.836a4.58 4.58 0 00-1.134-1.53l1.44-1.512a5.764 5.764 0 011.566 2.16c.36.852.54 1.8.54 2.844zm0-15.587c0 .985-.162 1.891-.486 2.719a6.65 6.65 0 01-1.35 2.16 6.242 6.242 0 01-2.052 1.422 6.569 6.569 0 01-2.592.504c-.936 0-1.794-.168-2.574-.504a6.003 6.003 0 01-2.052-1.422 6.498 6.498 0 01-1.368-2.16 7.346 7.346 0 01-.486-2.7c0-.984.162-1.885.486-2.7a6.498 6.498 0 011.368-2.16 6.003 6.003 0 012.052-1.422c.78-.337 1.638-.505 2.574-.505.936 0 1.8.169 2.592.505a6 6 0 012.052 1.421 6.65 6.65 0 011.35 2.16c.324.817.486 1.71.486 2.683zm-2.052.019c0-.636-.108-1.225-.324-1.764a4.13 4.13 0 00-.918-1.404 4.377 4.377 0 00-1.404-.918 4.536 4.536 0 00-1.782-.343c-.648 0-1.236.115-1.764.343a4.13 4.13 0 00-1.404.918c-.408.395-.72.864-.936 1.404a4.707 4.707 0 00-.324 1.763c0 .637.108 1.225.324 1.765.216.528.528.996.936 1.404.396.396.864.708 1.404.936a4.619 4.619 0 001.764.324c.636 0 1.224-.108 1.764-.324a4.577 4.577 0 001.422-.936 4.13 4.13 0 00.918-1.404c.216-.54.324-1.128.324-1.764zM64 87.94H51.4V85.6h10.62v-6.588H64v8.928zm.18-19.15c0 .983-.162 1.89-.486 2.717a6.65 6.65 0 01-1.35 2.16 6.242 6.242 0 01-2.052 1.422 6.569 6.569 0 01-2.592.504c-.936 0-1.794-.168-2.574-.504a6.003 6.003 0 01-2.052-1.422 6.498 6.498 0 01-1.368-2.16 7.345 7.345 0 01-.486-2.7c0-.984.162-1.884.486-2.7a6.498 6.498 0 011.368-2.16 6.003 6.003 0 012.052-1.422c.78-.336 1.638-.504 2.574-.504.936 0 1.8.168 2.592.504.792.336 1.476.81 2.052 1.422a6.65 6.65 0 011.35 2.16c.324.816.486 1.71.486 2.682zm-2.052.017c0-.636-.108-1.224-.324-1.764a4.13 4.13 0 00-.918-1.404 4.377 4.377 0 00-1.404-.918 4.536 4.536 0 00-1.782-.342c-.648 0-1.236.114-1.764.342a4.13 4.13 0 00-1.404.918c-.408.396-.72.864-.936 1.404a4.707 4.707 0 00-.324 1.764c0 .636.108 1.224.324 1.764.216.528.528.996.936 1.404.396.396.864.708 1.404.936a4.619 4.619 0 001.764.324c.636 0 1.224-.108 1.764-.324a4.577 4.577 0 001.422-.936 4.13 4.13 0 00.918-1.404c.216-.54.324-1.128.324-1.764zM64 56.842H51.4v-5.184c0-1.116.18-2.07.54-2.862.36-.804.876-1.422 1.548-1.854.672-.432 1.47-.648 2.394-.648.924 0 1.722.216 2.394.648.66.432 1.17 1.05 1.53 1.854.348.792.522 1.746.522 2.862v3.888l-1.062-1.044H64v2.34zm0-8.244l-4.572 3.186v-2.502L64 46.078v2.52zm-4.482 5.904l-1.116 1.044v-3.78c0-1.032-.222-1.806-.666-2.322-.444-.528-1.062-.792-1.854-.792-.804 0-1.422.264-1.854.792-.432.516-.648 1.29-.648 2.322v3.78l-1.152-1.044h7.29z"/><path opacity=".5" d="M64.18 146.476c0 .96-.156 1.854-.468 2.682a6.697 6.697 0 01-1.35 2.142 6.325 6.325 0 01-2.07 1.404 6.569 6.569 0 01-2.592.504c-.936 0-1.8-.168-2.592-.504a6.003 6.003 0 01-2.052-1.422 6.307 6.307 0 01-1.35-2.142c-.324-.816-.486-1.71-.486-2.682 0-1.032.18-1.974.54-2.826a5.515 5.515 0 011.566-2.16l1.422 1.512a4.464 4.464 0 00-1.098 1.53 4.449 4.449 0 00-.378 1.836c0 .66.108 1.266.324 1.818.216.54.522 1.014.918 1.422.396.396.864.708 1.404.936.54.216 1.134.324 1.782.324.648 0 1.242-.108 1.782-.324a4.361 4.361 0 001.404-.936c.396-.408.702-.882.918-1.422a4.948 4.948 0 00.324-1.818c0-.66-.12-1.272-.36-1.836a4.58 4.58 0 00-1.134-1.53l1.44-1.512a5.764 5.764 0 011.566 2.16c.36.852.54 1.8.54 2.844z"/><path opacity=".2" d="M64.18 174.476c0 .96-.156 1.854-.468 2.682a6.697 6.697 0 01-1.35 2.142 6.325 6.325 0 01-2.07 1.404 6.569 6.569 0 01-2.592.504c-.936 0-1.8-.168-2.592-.504a6.003 6.003 0 01-2.052-1.422 6.307 6.307 0 01-1.35-2.142c-.324-.816-.486-1.71-.486-2.682 0-1.032.18-1.974.54-2.826a5.515 5.515 0 011.566-2.16l1.422 1.512a4.464 4.464 0 00-1.098 1.53 4.449 4.449 0 00-.378 1.836c0 .66.108 1.266.324 1.818.216.54.522 1.014.918 1.422.396.396.864.708 1.404.936.54.216 1.134.324 1.782.324.648 0 1.242-.108 1.782-.324a4.361 4.361 0 001.404-.936c.396-.408.702-.882.918-1.422a4.948 4.948 0 00.324-1.818c0-.66-.12-1.272-.36-1.836a4.58 4.58 0 00-1.134-1.53l1.44-1.512a5.764 5.764 0 011.566 2.16c.36.852.54 1.8.54 2.844z"/><path opacity=".1" d="M64.18 202.476c0 .96-.156 1.854-.468 2.682a6.697 6.697 0 01-1.35 2.142 6.325 6.325 0 01-2.07 1.404 6.569 6.569 0 01-2.592.504c-.936 0-1.8-.168-2.592-.504a6.003 6.003 0 01-2.052-1.422 6.307 6.307 0 01-1.35-2.142c-.324-.816-.486-1.71-.486-2.682 0-1.032.18-1.974.54-2.826a5.515 5.515 0 011.566-2.16l1.422 1.512a4.464 4.464 0 00-1.098 1.53 4.449 4.449 0 00-.378 1.836c0 .66.108 1.266.324 1.818.216.54.522 1.014.918 1.422.396.396.864.708 1.404.936.54.216 1.134.324 1.782.324.648 0 1.242-.108 1.782-.324a4.361 4.361 0 001.404-.936c.396-.408.702-.882.918-1.422a4.948 4.948 0 00.324-1.818c0-.66-.12-1.272-.36-1.836a4.58 4.58 0 00-1.134-1.53l1.44-1.512a5.764 5.764 0 011.566 2.16c.36.852.54 1.8.54 2.844z"/><rect x="52" width="12" height="12" rx="6" fill="#D2286F"/></svg>
